X: 23492
T: Lexie MacAskill
R: reel
M: 4/4
K: Edorian
[M:6/8]|:a|eee deA|edB ABd|eee deA|dgf e2:|
|:f|g2f edB|AdB GBB|g2f edB|dgf e2:|
|:g|eAe edB|AAA GBd|eAe dGB|dgf e2:|
|:g|aea eed|BAd GBd|aea eeB|dgf e2:|

